static/assets/images/tokens/beth.svg

<svg width="256" height="256" viewBox="0 0 256 256" fill="none" xmlns="http://www.w3.org/2000/svg">
<path d="M128 256C198.692 256 256 198.692 256 128C256 57.3075 198.692 0 128 0C57.3075 0 0 57.3075 0 128C0 198.692 57.3075 256 128 256Z" fill="black"/>
<path d="M128 256C198.692 256 256 198.692 256 128C256 57.3075 198.692 0 128 0C57.3075 0 0 57.3075 0 128C0 198.692 57.3075 256 128 256Z" fill="#FAC315"/>
<path d="M127.999 45V159.653L178.999 129.625L127.999 45Z" fill="#3B3213"/>
<path d="M127.999 45L77 129.625L127.999 159.653L128 106.356L127.999 45Z" fill="#A48114"/>
<path d="M128 169.402V211L179 139.244L128 169.402Z" fill="#3B3213"/>
<path d="M128 211V169.402L77 139.244L128 211Z" fill="#A48114"/>
<path d="M127.999 159.653L178.999 129.625L128 106.356L127.999 159.653Z" fill="#181302"/>
<path d="M77 129.625L127.999 159.653L128 106.356L77 129.625Z" fill="#3B3213"/>
<path d="M60.9589 206.16L53.4754 213.644C96.1904 251.127 160.322 251.127 203.037 213.644L195.554 206.16C156.989 239.544 99.5233 239.544 60.9589 206.16Z" fill="white"/>
<path fill-rule="evenodd" clip-rule="evenodd" d="M213.644 53.4755C251.127 96.1905 251.127 160.322 213.644 203.037L206.16 195.554C239.544 156.989 239.544 99.5233 206.16 60.959L213.644 53.4755ZM53.4754 42.8689C96.1904 5.38551 160.322 5.38552 203.037 42.8689L195.554 50.3524C156.989 16.9685 99.5233 16.9685 60.9589 50.3524L53.4754 42.8689ZM42.8688 203.037C5.38543 160.322 5.38543 96.1905 42.8688 53.4755L50.3523 60.959C16.9684 99.5233 16.9684 156.989 50.3523 195.554L42.8688 203.037Z" fill="white"/>
</svg>

<svg xmlns="http://www.w3.org/2000/svg" fill="none" viewBox="0 0 256 256"><path fill="#000" d="M128 256c70.692 0 128-57.308 128-128S198.692 0 128 0 0 57.308 0 128s57.308 128 128 128"/><path fill="#FAC315" d="M128 256c70.692 0 128-57.308 128-128S198.692 0 128 0 0 57.308 0 128s57.308 128 128 128"/><path fill="#3B3213" d="M127.999 45v114.653l51-30.028z"/><path fill="#A48114" d="M127.999 45 77 129.625l50.999 30.028.001-53.297z"/><path fill="#3B3213" d="M128 169.402V211l51-71.756z"/><path fill="#A48114" d="M128 211v-41.598l-51-30.158z"/><path fill="#181302" d="m127.999 159.653 51-30.028L128 106.356z"/><path fill="#3B3213" d="m77 129.625 50.999 30.028.001-53.297z"/><path fill="#fff" d="m60.959 206.16-7.484 7.484c42.715 37.483 106.847 37.483 149.562 0l-7.483-7.484c-38.565 33.384-96.03 33.384-134.595 0"/><path fill="#fff" fill-rule="evenodd" d="M213.644 53.476c37.483 42.715 37.483 106.846 0 149.561l-7.484-7.483c33.384-38.565 33.384-96.03 0-134.595zM53.475 42.869c42.715-37.483 106.847-37.483 149.562 0l-7.483 7.483c-38.565-33.383-96.03-33.383-134.595 0zM42.87 203.037c-37.484-42.715-37.484-106.846 0-149.562l7.483 7.484c-33.384 38.564-33.384 96.03 0 134.595z" clip-rule="evenodd"/></svg>
